Assets/Home/logo.svg

<svg width="57" height="57" viewBox="0 0 57 57" fill="none" xmlns="http://www.w3.org/2000/svg">
<rect width="57" height="57" fill="white"/>
<path d="M22.8648 36.2626H12.4573L10.6691 41.3412H6.41308L15.3185 16.4489H20.0394L28.9448 41.3412H24.6531L22.8648 36.2626ZM21.7204 32.9365L17.679 21.3845L13.6018 32.9365H21.7204ZM46.3718 16.4847V34.4028C46.3718 36.6202 45.6922 38.3727 44.3332 39.6602C42.998 40.9478 41.2336 41.5915 39.04 41.5915C36.8464 41.5915 35.0701 40.9478 33.7111 39.6602C32.3758 38.3727 31.7082 36.6202 31.7082 34.4028H35.8212C35.845 35.4996 36.1192 36.3699 36.6438 37.0137C37.1922 37.6574 37.9909 37.9793 39.04 37.9793C40.0891 37.9793 40.8878 37.6574 41.4362 37.0137C41.9846 36.346 42.2588 35.4758 42.2588 34.4028V16.4847H46.3718Z" fill="black"/>
</svg>

<?xml version="1.0" encoding="utf-8"?>
<!-- Generator: Adobe Illustrator 27.1.1, SVG Export Plug-In . SVG Version: 6.00 Build 0)  -->
<svg version="1.1" id="Layer_1" xmlns="http://www.w3.org/2000/svg" xmlns:xlink="http://www.w3.org/1999/xlink" x="0px" y="0px"
	 viewBox="0 0 57 57" style="enable-background:new 0 0 57 57;" xml:space="preserve">
<style type="text/css">
	.st0{fill:#FFFFFF;}
</style>
<rect class="st0" width="57" height="57"/>
<path d="M22.9,36.3H12.5l-1.8,5.1H6.4l8.9-24.9H20l8.9,24.9h-4.3L22.9,36.3z M21.7,32.9l-4-11.6l-4.1,11.6H21.7z M46.4,16.5v17.9
	c0,2.2-0.7,4-2,5.3c-1.3,1.3-3.1,1.9-5.3,1.9s-4-0.6-5.3-1.9c-1.3-1.3-2-3-2-5.3h4.1c0,1.1,0.3,2,0.8,2.6c0.5,0.6,1.3,1,2.4,1
	c1,0,1.8-0.3,2.4-1c0.5-0.7,0.8-1.5,0.8-2.6V16.5H46.4z"/>
</svg>
